public/images/logos/vanessa-bruno.svg

<svg width="493" height="104" viewBox="0 0 493 104" fill="none" xmlns="http://www.w3.org/2000/svg">
<path d="M121.135 0.537323H146.712V3.72002H126.336V16.9866H141.51V20.1693H126.336V34.4973H147.402V37.68H121.135V0.537323Z" fill="#343433"/>
<path d="M18.116 30.6334L5.49337 0.528107H0L15.9494 37.8161H18.4334L34.436 0.528107H30.6334L18.116 30.6334Z" fill="#333333"/>
<path d="M50.696 0.211395L34.6934 37.4994H38.444L43.3014 25.9847H58.6174L63.5294 37.4994H69.128L53.1774 0.211395H50.696ZM44.5174 23.0274L50.908 7.81669L57.3507 23.0274H44.5174Z" fill="#333333"/>
<path d="M104.668 27.8336L82.7492 0.528198H77.8372V37.4989H81.5332V6.8656L106.304 37.6576H108.365V0.528198H104.668V27.8336Z" fill="#333333"/>
<path d="M126.297 20.0697H141.403V16.9017H126.297V3.6964H146.58V0.5271H121.12V37.5004H147.267V34.3311H126.297V20.0697Z" fill="#333333"/>
<path d="M171.902 16.7426L166.938 15.4226C162.342 14.208 160.071 12.78 160.071 9.1893C160.071 5.44 163.401 3.1693 168.047 3.1693C172.801 3.1693 176.655 5.44 178.769 9.2426L181.355 6.76C179.033 2.8533 174.226 0 168.047 0C160.653 0 155.159 4.2786 155.159 10.2986C155.159 16.056 158.751 18.4853 165.037 20.176L170.106 21.5493C174.279 22.6586 176.971 24.2413 176.971 28.0453C176.971 32.4813 173.222 34.7013 168.205 34.7013C163.505 34.7013 158.805 32.692 155.899 27.7813L153.259 29.9986C155.741 34.912 161.709 38.0266 168.205 38.0266C175.547 38.0266 181.885 33.8026 181.885 26.6186C181.885 21.1266 178.082 18.3786 171.902 16.7426Z" fill="#333333"/>
<path d="M207.572 16.7426L202.608 15.4226C198.012 14.208 195.741 12.78 195.741 9.1893C195.741 5.44 199.068 3.1693 203.717 3.1693C208.471 3.1693 212.325 5.44 214.439 9.2426L217.025 6.76C214.703 2.8533 209.896 0 203.717 0C196.323 0 190.829 4.2786 190.829 10.2986C190.829 16.056 194.421 18.4853 200.707 20.176L205.776 21.5493C209.949 22.6586 212.641 24.2413 212.641 28.0453C212.641 32.4813 208.892 34.7013 203.875 34.7013C199.175 34.7013 194.475 32.692 191.568 27.7813L188.929 29.9986C191.411 34.912 197.379 38.0266 203.875 38.0266C211.216 38.0266 217.555 33.8026 217.555 26.6186C217.555 21.1266 213.752 18.3786 207.572 16.7426Z" fill="#333333"/>
<path d="M239.324 0.211401L223.32 37.4994H227.071L231.93 25.9847H247.246L252.158 37.4994H257.756L241.806 0.211401H239.324ZM233.146 23.0274L239.536 7.8167L245.979 23.0274H233.146Z" fill="#333333"/>
<path d="M311.998 18.4857V18.3804C317.12 18.063 321.347 14.8417 321.347 9.8764C321.347 3.0644 315.378 0.5284 308.036 0.5284H295.096V37.499H309.303C317.016 37.499 322.879 34.4897 322.879 27.5164C322.879 21.4964 317.914 18.6964 311.998 18.4857ZM300.272 3.591H307.244C312.579 3.591 315.96 5.5457 315.96 10.1924C315.96 15.4217 312.051 16.9537 307.139 16.9537H300.272V3.591ZM308.3 34.435H300.272V20.0697H307.614C313.687 20.0697 317.492 22.183 317.492 27.3057C317.492 32.4284 313.742 34.435 308.3 34.435Z" fill="#333333"/>
<path d="M358.775 26.4602C357.455 22.5509 355.554 20.4402 350.907 19.8589V19.6989C355.871 19.5949 361.47 17.1642 361.47 10.5109C361.47 3.1682 355.236 0.5282 347.631 0.5282H333.371V37.4989H338.547V21.1802H345.73C350.588 21.1802 352.067 22.6589 353.492 26.6722L355.711 32.6402C356.08 33.6962 357.031 36.0215 358.088 37.4989H363.898C362.472 35.8095 361.522 34.0135 360.887 32.2162L358.775 26.4602ZM338.547 18.1162V3.5909H346.575C352.067 3.5909 355.818 5.5989 355.818 10.6162C355.818 16.3189 351.644 18.1162 346.575 18.1162H338.547Z" fill="#333333"/>
<path d="M398.586 22.7101C398.586 30.7928 394.731 34.4354 388.128 34.4354C381.579 34.4354 377.512 30.3168 377.512 22.7101V0.528801H372.336V23.2914C372.336 32.3234 377.512 38.0274 387.704 38.0274C395.944 38.0274 402.283 32.9568 402.283 23.2914V0.528801H398.586V22.7101Z" fill="#333333"/>
<path d="M441.463 27.8336L419.545 0.5282H414.633V37.4989H418.329V6.8656L443.1 37.6576H445.161V0.5282H441.463V27.8336Z" fill="#333333"/>
<path d="M473.693 0C463.13 0 455.261 8.3453 455.261 19.0133C455.261 29.6813 463.13 38.0266 473.693 38.0266C484.257 38.0266 492.074 29.6813 492.074 19.0133C492.074 8.3453 484.257 0 473.693 0ZM473.693 35.0693C465.929 35.0693 461.122 28.8373 461.122 19.0133C461.122 9.1893 465.929 2.9573 473.693 2.9573C481.457 2.9573 486.264 9.1893 486.264 19.0133C486.264 28.8373 481.457 35.0693 473.693 35.0693Z" fill="#333333"/>
<path d="M60.0499 86.9052L54.9939 85.5362C48.7245 83.8502 45.1432 81.4279 45.1432 75.6866C45.1432 69.6813 50.6219 65.4146 57.9952 65.4146C64.1592 65.4146 68.9512 68.2599 71.2699 72.1559L68.6885 74.6333C66.5819 70.8399 62.7365 68.5746 57.9952 68.5746C53.3605 68.5746 50.0419 70.8399 50.0419 74.5799C50.0419 78.1613 52.3072 79.5839 56.8899 80.7959L61.8405 82.1119C68.0032 83.7453 71.7965 86.4852 71.7965 91.9622C71.7965 99.1252 65.4752 103.34 58.1539 103.34C51.6752 103.34 45.7232 100.232 43.2472 95.3332L45.8819 93.1212C48.7779 98.0202 53.4659 100.021 58.1539 100.021C63.1579 100.021 66.8979 97.8092 66.8979 93.3842C66.8979 89.5922 64.2112 88.0122 60.0499 86.9052Z" fill="#BEC0C2"/>
<path d="M78.0156 65.9417H103.405V69.1017H83.1783V82.2697H98.2423V85.4302H83.1783V99.6522H104.089V102.812H78.0156V65.9417Z" fill="#BEC0C2"/>
<path d="M128.305 65.4144C134.573 65.4144 139.736 68.049 143.001 73.9477L140.42 76.4757C138.051 71.893 134.573 68.8384 128.621 68.8384C121.036 68.8384 115.453 74.5277 115.453 84.4302C115.453 94.5952 121.721 99.8632 128.621 99.8632C134.363 99.8632 137.944 97.1772 140.473 92.1712L143.055 93.9632C139.736 100.389 134.679 103.339 128.148 103.339C117.929 103.339 109.555 95.8592 109.555 84.6412C109.555 73.369 117.876 65.4144 128.305 65.4144Z" fill="#BEC0C2"/>
<path d="M165.91 100.389C173.652 100.389 178.446 94.1752 178.446 84.3762C178.446 74.5804 173.652 68.3644 165.91 68.3644C158.167 68.3644 153.374 74.5804 153.374 84.3762C153.374 94.1752 158.167 100.389 165.91 100.389ZM165.91 65.415C176.444 65.415 184.24 73.7377 184.24 84.3762C184.24 95.0172 176.444 103.34 165.91 103.34C155.375 103.34 147.527 95.0172 147.527 84.3762C147.527 73.7377 155.375 65.415 165.91 65.415Z" fill="#BEC0C2"/>
<path d="M218.102 65.9417H221.79V102.969H219.736L195.032 72.2617V102.812H191.345V65.9417H196.242L218.102 93.1732V65.9417Z" fill="#BEC0C2"/>
<path d="M240.86 68.9443H235.171V99.8092H241.123C250.815 99.8092 256.188 94.1752 256.188 84.2722C256.188 74.843 250.815 68.9443 240.86 68.9443ZM230.01 102.812V65.9417H241.282C254.082 65.9417 261.876 73.0003 261.876 84.2722C261.876 95.9132 253.923 102.812 241.65 102.812H230.01Z" fill="#BEC0C2"/>
<path d="M269.024 65.9417H294.412V69.1017H274.185V82.2697H289.251V85.4302H274.185V99.6522H295.097V102.812H269.024V65.9417Z" fill="#BEC0C2"/>
<path d="M347.767 65.9417H354.192V102.812H349.031V71.2084L335.704 103.076H333.914L320.535 71.2084V102.812H316.848V65.9417H323.695L335.863 95.1232L347.767 65.9417Z" fill="#BEC0C2"/>
<path d="M369.62 88.3802H382.421L375.993 73.2098L369.62 88.3802ZM383.684 91.3302H368.409L363.563 102.812H359.823L375.783 65.6258H378.259L394.167 102.812H388.584L383.684 91.3302Z" fill="#BEC0C2"/>
<path d="M404.577 102.812H399.416V65.9416H404.577V102.812Z" fill="#BEC0C2"/>
<path d="M441.432 65.9417H445.12V102.969H443.065L418.361 72.2617V102.812H414.675V65.9417H419.572L441.432 93.1732V65.9417Z" fill="#BEC0C2"/>
<path d="M121.135 0.537323H146.712V3.72002H126.336V16.9866H141.51V20.1693H126.336V34.4973H147.402V37.68H121.135V0.537323Z" fill="#343433"/>
<path d="M18.116 30.6334L5.49337 0.528107H0L15.9494 37.8161H18.4334L34.436 0.528107H30.6334L18.116 30.6334Z" fill="#333333"/>
<path d="M50.696 0.211395L34.6934 37.4994H38.444L43.3014 25.9847H58.6174L63.5294 37.4994H69.128L53.1774 0.211395H50.696ZM44.5174 23.0274L50.908 7.81669L57.3507 23.0274H44.5174Z" fill="#333333"/>
<path d="M104.668 27.8336L82.7492 0.528198H77.8372V37.4989H81.5332V6.8656L106.304 37.6576H108.365V0.528198H104.668V27.8336Z" fill="#333333"/>
<path d="M126.297 20.0697H141.403V16.9017H126.297V3.6964H146.58V0.5271H121.12V37.5004H147.267V34.3311H126.297V20.0697Z" fill="#333333"/>
</svg>

<svg xmlns="http://www.w3.org/2000/svg" width="493" height="104" fill="none"><path fill="#343433" d="M121.135.537h25.577V3.72h-20.376v13.267h15.174v3.182h-15.174v14.328h21.066v3.183h-26.267V.537Z"/><path fill="#333" d="M18.116 30.633 5.493.528H0l15.95 37.288h2.483L34.436.528h-3.803L18.116 30.633ZM50.696.211 34.693 37.5h3.751l4.857-11.514h15.316l4.912 11.514h5.599L53.178.211h-2.482Zm-6.179 22.816 6.391-15.21 6.443 15.21H44.517ZM104.668 27.834 82.749.528h-4.912v36.97h3.696V6.867l24.771 30.792h2.061V.528h-3.697v27.306ZM126.297 20.07h15.106v-3.168h-15.106V3.696h20.283V.527h-25.46V37.5h26.147v-3.169h-20.97V20.07ZM171.902 16.743l-4.964-1.32c-4.596-1.215-6.867-2.643-6.867-6.234 0-3.749 3.33-6.02 7.976-6.02 4.754 0 8.608 2.271 10.722 6.074l2.586-2.483C179.033 2.853 174.226 0 168.047 0c-7.394 0-12.888 4.279-12.888 10.299 0 5.757 3.592 8.186 9.878 9.877l5.069 1.373c4.173 1.11 6.865 2.692 6.865 6.496 0 4.436-3.749 6.656-8.766 6.656-4.7 0-9.4-2.009-12.306-6.92L153.259 30c2.482 4.913 8.45 8.028 14.946 8.028 7.342 0 13.68-4.224 13.68-11.408 0-5.492-3.803-8.24-9.983-9.876ZM207.572 16.743l-4.964-1.32c-4.596-1.215-6.867-2.643-6.867-6.234 0-3.749 3.327-6.02 7.976-6.02 4.754 0 8.608 2.271 10.722 6.074l2.586-2.483C214.703 2.853 209.896 0 203.717 0c-7.394 0-12.888 4.279-12.888 10.299 0 5.757 3.592 8.186 9.878 9.877l5.069 1.373c4.173 1.11 6.865 2.692 6.865 6.496 0 4.436-3.749 6.656-8.766 6.656-4.7 0-9.4-2.009-12.307-6.92L188.929 30c2.482 4.913 8.45 8.028 14.946 8.028 7.341 0 13.68-4.224 13.68-11.408 0-5.492-3.803-8.24-9.983-9.876ZM239.324.211 223.32 37.5h3.751l4.859-11.514h15.316l4.912 11.514h5.598L241.806.211h-2.482Zm-6.178 22.816 6.39-15.21 6.443 15.21h-12.833ZM311.998 18.486v-.106c5.122-.317 9.349-3.538 9.349-8.504 0-6.812-5.969-9.348-13.311-9.348h-12.94V37.5h14.207c7.713 0 13.576-3.01 13.576-9.983 0-6.02-4.965-8.82-10.881-9.03ZM300.272 3.59h6.972c5.335 0 8.716 1.955 8.716 6.601 0 5.23-3.909 6.762-8.821 6.762h-6.867V3.59Zm8.028 30.844h-8.028V20.07h7.342c6.073 0 9.878 2.113 9.878 7.236 0 5.122-3.75 7.129-9.192 7.129ZM358.775 26.46c-1.32-3.91-3.221-6.02-7.868-6.601v-.16c4.964-.104 10.563-2.535 10.563-9.188 0-7.343-6.234-9.983-13.839-9.983h-14.26v36.97h5.176V21.18h7.183c4.858 0 6.337 1.479 7.762 5.492l2.219 5.968c.369 1.056 1.32 3.382 2.377 4.859h5.81a16.757 16.757 0 0 1-3.011-5.283l-2.112-5.756Zm-20.228-8.344V3.591h8.028c5.492 0 9.243 2.008 9.243 7.025 0 5.703-4.174 7.5-9.243 7.5h-8.028ZM398.586 22.71c0 8.083-3.855 11.725-10.458 11.725-6.549 0-10.616-4.118-10.616-11.725V.53h-5.176V23.29c0 9.032 5.176 14.736 15.368 14.736 8.24 0 14.579-5.07 14.579-14.736V.53h-3.697V22.71ZM441.463 27.834 419.545.528h-4.912v36.97h3.696V6.867L443.1 37.658h2.061V.528h-3.698v27.306ZM473.693 0c-10.563 0-18.432 8.345-18.432 19.013 0 10.668 7.869 19.014 18.432 19.014 10.564 0 18.381-8.346 18.381-19.014S484.257 0 473.693 0Zm0 35.07c-7.764 0-12.571-6.233-12.571-16.057 0-9.824 4.807-16.056 12.571-16.056 7.764 0 12.571 6.232 12.571 16.056 0 9.824-4.807 16.056-12.571 16.056Z"/><path fill="#BEC0C2" d="m60.05 86.905-5.056-1.369c-6.27-1.686-9.85-4.108-9.85-9.85 0-6.005 5.478-10.271 12.851-10.271 6.164 0 10.956 2.845 13.275 6.74l-2.581 2.478c-2.107-3.793-5.952-6.058-10.694-6.058-4.634 0-7.953 2.265-7.953 6.005 0 3.581 2.265 5.004 6.848 6.216l4.95 1.316c6.163 1.633 9.956 4.373 9.956 9.85 0 7.163-6.32 11.378-13.642 11.378-6.479 0-12.43-3.108-14.907-8.007l2.635-2.212c2.896 4.9 7.584 6.9 12.272 6.9 5.004 0 8.744-2.212 8.744-6.637 0-3.792-2.687-5.372-6.848-6.479ZM78.016 65.942h25.389v3.16H83.178V82.27h15.064v3.16H83.178v14.222h20.911v3.16H78.016v-36.87ZM128.305 65.414c6.268 0 11.431 2.635 14.696 8.534l-2.581 2.528c-2.369-4.583-5.847-7.638-11.799-7.638-7.585 0-13.168 5.69-13.168 15.592 0 10.165 6.268 15.433 13.168 15.433 5.742 0 9.323-2.686 11.852-7.692l2.582 1.792c-3.319 6.426-8.376 9.376-14.907 9.376-10.219 0-18.593-7.48-18.593-18.698 0-11.272 8.321-19.227 18.75-19.227ZM165.91 100.389c7.742 0 12.536-6.214 12.536-16.013 0-9.796-4.794-16.012-12.536-16.012-7.743 0-12.536 6.216-12.536 16.012 0 9.8 4.793 16.013 12.536 16.013Zm0-34.974c10.534 0 18.33 8.323 18.33 18.961 0 10.641-7.796 18.964-18.33 18.964-10.535 0-18.383-8.323-18.383-18.964 0-10.638 7.848-18.961 18.383-18.961ZM218.102 65.942h3.688v37.027h-2.054l-24.704-30.707v30.55h-3.687v-36.87h4.897l21.86 27.231V65.942ZM240.86 68.944h-5.689V99.81h5.952c9.692 0 15.065-5.634 15.065-15.537 0-9.429-5.373-15.328-15.328-15.328Zm-10.85 33.868v-36.87h11.272c12.8 0 20.594 7.058 20.594 18.33 0 11.641-7.953 18.54-20.226 18.54h-11.64ZM269.024 65.942h25.388v3.16h-20.227V82.27h15.066v3.16h-15.066v14.222h20.912v3.16h-26.073v-36.87ZM347.767 65.942h6.425v36.87h-5.161V71.208l-13.327 31.868h-1.79l-13.379-31.868v31.604h-3.687v-36.87h6.847l12.168 29.181 11.904-29.181ZM369.62 88.38h12.801l-6.428-15.17-6.373 15.17Zm14.064 2.95h-15.275l-4.846 11.482h-3.74l15.96-37.186h2.476l15.908 37.186h-5.583l-4.9-11.482ZM404.577 102.812h-5.161v-36.87h5.161v36.87ZM441.432 65.942h3.688v37.027h-2.055l-24.704-30.707v30.55h-3.686v-36.87h4.897l21.86 27.231V65.942Z"/><path fill="#343433" d="M121.135.537h25.577V3.72h-20.376v13.267h15.174v3.182h-15.174v14.328h21.066v3.183h-26.267V.537Z"/><path fill="#333" d="M18.116 30.633 5.493.528H0l15.95 37.288h2.483L34.436.528h-3.803L18.116 30.633ZM50.696.211 34.693 37.5h3.751l4.857-11.514h15.316l4.912 11.514h5.599L53.178.211h-2.482Zm-6.179 22.816 6.391-15.21 6.443 15.21H44.517ZM104.668 27.834 82.749.528h-4.912v36.97h3.696V6.867l24.771 30.792h2.061V.528h-3.697v27.306ZM126.297 20.07h15.106v-3.168h-15.106V3.696h20.283V.527h-25.46V37.5h26.147v-3.169h-20.97V20.07Z"/></svg>
